Obsidian-SemiLight/actions/22s/mail-receive.svg

<svg viewBox="0 0 22 22" xmlns="http://www.w3.org/2000/svg"><path d="m9 3v1 4h-1.890625-1.1542969l-3.9550781 6.849609v1.460938 2.689453h4 10 4v-2.689453-1.460938l-3.955078-6.849609h-.044922-3v-4-1zm1 1h2v7h1v-2h2.46875l3.464844 6h-2.933594l-1 2h-8l-1-2h-2.9335938l3.4648438-6h2.46875v2h1zm-3.2421875 6.34375-.7070313.707031 4.9492188 4.949219 4.949219-4.949219-.707031-.707031-4.242188 4.242188z" fill="#4d4d4d"/></svg>

<svg xmlns="http://www.w3.org/2000/svg" viewBox="0 0 22 22">
  <defs id="defs3051">
    <style type="text/css" id="current-color-scheme">
      .ColorScheme-Text {
        color:#4d4d4d;
      }
      </style>
  </defs>
 <path 
    style="fill:currentColor;fill-opacity:1;stroke:none" 
    d="M 9 3 L 9 4 L 9 8 L 7.109375 8 L 5.9550781 8 L 2 14.849609 L 2 16.310547 L 2 19 L 6 19 L 16 19 L 20 19 L 20 16.310547 L 20 14.849609 L 16.044922 8 L 16 8 L 13 8 L 13 4 L 13 3 L 9 3 z M 10 4 L 12 4 L 12 11 L 13 11 L 13 9 L 15.46875 9 L 18.933594 15 L 16 15 L 15 17 L 7 17 L 6 15 L 3.0664062 15 L 6.53125 9 L 9 9 L 9 11 L 10 11 L 10 4 z M 6.7578125 10.34375 L 6.0507812 11.050781 L 11 16 L 15.949219 11.050781 L 15.242188 10.34375 L 11 14.585938 L 6.7578125 10.34375 z "
    class="ColorScheme-Text"
    />  
</svg>
